src/pos-icons/wifi-strength-alert-outline.svg

<svg height="24" viewBox="0 0 24 24" width="24" xmlns="http://www.w3.org/2000/svg"><path d="m12 3c-4.21 0-8.3 1.41-11.62 4h-.02c3.88 4.83 7.77 9.66 11.64 14.5 2.34-2.91 4.67-5.82 7-8.72v-3.19l-7 8.71-8.73-10.86c2.63-1.59 5.65-2.44 8.73-2.44 3.07 0 6.09.86 8.71 2.45l-.44.55h2.57c.27-.33.53-.67.8-1h.01c-3.33-2.59-7.43-4-11.65-4m9 7v8h2v-8m-2 10v2h2v-2"/></svg>

<?xml version="1.0" encoding="UTF-8"?><!DOCTYPE svg PUBLIC "-//W3C//DTD SVG 1.1//EN" "http://www.w3.org/Graphics/SVG/1.1/DTD/svg11.dtd"><svg xmlns="http://www.w3.org/2000/svg" xmlns:xlink="http://www.w3.org/1999/xlink" version="1.1" id="mdi-wifi-strength-alert-outline" width="24" height="24" viewBox="0 0 24 24"><path d="M12,3C7.79,3 3.7,4.41 0.38,7H0.36C4.24,11.83 8.13,16.66 12,21.5C14.34,18.59 16.67,15.68 19,12.78V9.59L12,18.3L3.27,7.44C5.9,5.85 8.92,5 12,5C15.07,5 18.09,5.86 20.71,7.45L20.27,8H22.84C23.11,7.67 23.37,7.33 23.64,7H23.65C20.32,4.41 16.22,3 12,3M21,10V18H23V10M21,20V22H23V20" /></svg>
